fs/people_add_20_filled.svg

<svg viewBox="0 0 20 20" fill="none" xmlns="http://www.w3.org/2000/svg" height="1em" width="1em">
  <path d="M6.75 9C8.54493 9 10 7.54493 10 5.75C10 3.95507 8.54493 2.5 6.75 2.5C4.95507 2.5 3.5 3.95507 3.5 5.75C3.5 7.54493 4.95507 9 6.75 9ZM17 6.5C17 7.88071 15.8807 9 14.5 9C13.1193 9 12 7.88071 12 6.5C12 5.11929 13.1193 4 14.5 4C15.8807 4 17 5.11929 17 6.5ZM9 14.5C9 12.7955 9.77535 11.2721 10.9926 10.2633C10.7001 10.0958 10.3612 10 10 10H3.5C2.39543 10 1.5 10.8954 1.5 12C1.5 12 1.5 16 6.75 16C7.70277 16 8.48263 15.8683 9.12097 15.6526C9.04171 15.2809 9 14.8953 9 14.5ZM19 14.5C19 16.9853 16.9853 19 14.5 19C12.0147 19 10 16.9853 10 14.5C10 12.0147 12.0147 10 14.5 10C16.9853 10 19 12.0147 19 14.5ZM15 12.5C15 12.2239 14.7761 12 14.5 12C14.2239 12 14 12.2239 14 12.5V14H12.5C12.2239 14 12 14.2239 12 14.5C12 14.7761 12.2239 15 12.5 15H14V16.5C14 16.7761 14.2239 17 14.5 17C14.7761 17 15 16.7761 15 16.5V15H16.5C16.7761 15 17 14.7761 17 14.5C17 14.2239 16.7761 14 16.5 14H15V12.5Z" fill="#212121"/>
</svg>

<svg viewBox="0 0 20 20" fill="none" xmlns="http://www.w3.org/2000/svg" height="1em" width="1em">
  <path d="M6.75 9a3.25 3.25 0 1 0 0-6.5 3.25 3.25 0 0 0 0 6.5ZM17 6.5a2.5 2.5 0 1 1-5 0 2.5 2.5 0 0 1 5 0Zm-8 8c0-1.704.775-3.228 1.993-4.237A1.991 1.991 0 0 0 10 10H3.5a2 2 0 0 0-2 2s0 4 5.25 4c.953 0 1.733-.132 2.371-.347A5.522 5.522 0 0 1 9 14.5Zm10 0a4.5 4.5 0 1 1-9 0 4.5 4.5 0 0 1 9 0Zm-4-2a.5.5 0 0 0-1 0V14h-1.5a.5.5 0 0 0 0 1H14v1.5a.5.5 0 0 0 1 0V15h1.5a.5.5 0 0 0 0-1H15v-1.5Z" fill="#212121"/>
</svg>
